app/bin/resource/pic/edit_table_merge_cells.svg

<?xml version="1.0" encoding="UTF-8" standalone="no"?>
<!-- Created with Inkscape (http://www.inkscape.org/) -->
<svg
   xmlns:dc="http://purl.org/dc/elements/1.1/"
   xmlns:cc="http://creativecommons.org/ns#"
   xmlns:rdf="http://www.w3.org/1999/02/22-rdf-syntax-ns#"
   xmlns:svg="http://www.w3.org/2000/svg"
   xmlns="http://www.w3.org/2000/svg"
   xmlns:sodipodi="http://sodipodi.sourceforge.net/DTD/sodipodi-0.dtd"
   xmlns:inkscape="http://www.inkscape.org/namespaces/inkscape"
   width="16px"
   height="16px"
   id="svg2385"
   sodipodi:version="0.32"
   inkscape:version="0.46"
   sodipodi:docname="edit_merge_cells.svg"
   inkscape:output_extension="org.inkscape.output.svg.inkscape">
  <defs
     id="defs2387">
    <inkscape:perspective
       sodipodi:type="inkscape:persp3d"
       inkscape:vp_x="0 : 8 : 1"
       inkscape:vp_y="0 : 1000 : 0"
       inkscape:vp_z="16 : 8 : 1"
       inkscape:persp3d-origin="8 : 5.3333333 : 1"
       id="perspective2393" />
  </defs>
  <sodipodi:namedview
     id="base"
     pagecolor="#ffffff"
     bordercolor="#666666"
     borderopacity="1.0"
     inkscape:pageopacity="0.0"
     inkscape:pageshadow="2"
     inkscape:zoom="22.831461"
     inkscape:cx="6.243807"
     inkscape:cy="8.625"
     inkscape:current-layer="layer1"
     showgrid="true"
     inkscape:grid-bbox="true"
     inkscape:document-units="px"
     gridtolerance="17"
     guidetolerance="3"
     inkscape:window-width="947"
     inkscape:window-height="696"
     inkscape:window-x="0"
     inkscape:window-y="13"
     inkscape:snap-bbox="true"
     inkscape:object-paths="true"
     inkscape:object-nodes="true"
     inkscape:snap-nodes="true"
     objecttolerance="26"
     inkscape:bbox-paths="false"
     inkscape:bbox-nodes="false">
    <inkscape:grid
       type="xygrid"
       id="grid3169"
       visible="true"
       enabled="true" />
  </sodipodi:namedview>
  <metadata
     id="metadata2390">
    <rdf:RDF>
      <cc:Work
         rdf:about="">
        <dc:format>image/svg+xml</dc:format>
        <dc:type
           rdf:resource="http://purl.org/dc/dcmitype/StillImage" />
      </cc:Work>
    </rdf:RDF>
  </metadata>
  <g
     id="layer1"
     inkscape:label="Layer 1"
     inkscape:groupmode="layer">
    <path
       style="fill:none;fill-rule:evenodd;stroke:#000000;stroke-width:0.5;stroke-linecap:butt;stroke-linejoin:miter;stroke-opacity:1;stroke-miterlimit:4;stroke-dasharray:none"
       d="M 24,5.429626 C nan,nan nan,nan 24,15"
       id="path3219"
       sodipodi:nodetypes="cc" />
    <rect
       style="fill:#000000;fill-opacity:1;fill-rule:nonzero;stroke:none;stroke-width:0.5;stroke-linejoin:miter;stroke-miterlimit:4;stroke-dasharray:none;stroke-dashoffset:0;stroke-opacity:1"
       id="rect3188"
       width="14"
       height="5"
       x="1"
       y="0" />
    <rect
       style="fill:#87aade;fill-opacity:1;fill-rule:nonzero;stroke:none;stroke-width:0.5;stroke-linejoin:miter;stroke-miterlimit:4;stroke-dasharray:none;stroke-dashoffset:0;stroke-opacity:1"
       id="rect3190"
       width="13"
       height="4"
       x="1.5"
       y="0.5" />
    <path
       style="fill:none;fill-rule:evenodd;stroke:#000000;stroke-width:0.5;stroke-linecap:butt;stroke-linejoin:miter;stroke-miterlimit:4;stroke-dasharray:none;stroke-opacity:1"
       d="M 5.75,0.3085477 L 5.75,4.5011178"
       id="path3174" />
    <path
       style="fill:none;fill-rule:evenodd;stroke:#000000;stroke-width:0.49999994;stroke-linecap:butt;stroke-linejoin:miter;stroke-miterlimit:4;stroke-dasharray:none;stroke-opacity:1"
       d="M 10.25,0.3189059 L 10.25,4.5011223"
       id="path2430" />
    <rect
       style="fill:#000000;fill-opacity:1;fill-rule:nonzero;stroke:none;stroke-width:0.5;stroke-linejoin:miter;stroke-miterlimit:4;stroke-dasharray:none;stroke-dashoffset:0;stroke-opacity:1"
       id="rect2408"
       width="14"
       height="5"
       x="1"
       y="11" />
    <rect
       style="fill:#87aade;fill-opacity:1;fill-rule:nonzero;stroke:none;stroke-width:0.5;stroke-linejoin:miter;stroke-miterlimit:4;stroke-dasharray:none;stroke-dashoffset:0;stroke-opacity:1"
       id="rect2410"
       width="13"
       height="4"
       x="1.5"
       y="11.5" />
    <path
       style="fill:#000000;fill-opacity:1;fill-rule:evenodd;stroke:none;stroke-width:0.5;stroke-linecap:butt;stroke-linejoin:bevel;stroke-miterlimit:4;stroke-dasharray:none;stroke-opacity:1"
       d="M 13.14302,7.51916 L 10.14302,7.51916 L 10.14302,4.51916 L 6.14302,4.51916 L 6.14302,7.51916 L 3.14302,7.51916 L 8.14302,12.51916 L 13.14302,7.51916 z"
       id="path3301"
       sodipodi:nodetypes="cccccccc" />
    <path
       style="fill:#aade87;fill-opacity:1;fill-rule:evenodd;stroke:none;stroke-width:0.50000000000000000;stroke-linecap:butt;stroke-linejoin:bevel;stroke-miterlimit:4;stroke-dasharray:none;stroke-opacity:1"
       d="M 11.999999,7.9999999 L 9.6104637,7.9999999 L 9.6104637,5.0453508 L 6.6755763,5.0453508 L 6.6755763,7.9999999 L 4.286039,7.9999999 L 8.14302,11.85698 L 11.999999,7.9999999 z"
       id="path3193"
       sodipodi:nodetypes="cccccccc" />
  </g>
</svg>

<svg xmlns="http://www.w3.org/2000/svg" width="16" height="16"><path style="fill:#000;fill-opacity:1;fill-rule:nonzero;stroke:none;stroke-width:.5;stroke-linejoin:miter;stroke-miterlimit:4;stroke-dasharray:none;stroke-dashoffset:0;stroke-opacity:1" d="M1 0h14v5H1z"/><path style="fill:#87aade;fill-opacity:1;fill-rule:nonzero;stroke:none;stroke-width:.5;stroke-linejoin:miter;stroke-miterlimit:4;stroke-dasharray:none;stroke-dashoffset:0;stroke-opacity:1" d="M1.5.5h13v4h-13z"/><path style="fill:none;fill-rule:evenodd;stroke:#000;stroke-width:.5;stroke-linecap:butt;stroke-linejoin:miter;stroke-miterlimit:4;stroke-dasharray:none;stroke-opacity:1" d="M5.75.309V4.5"/><path style="fill:none;fill-rule:evenodd;stroke:#000;stroke-width:.49999994;stroke-linecap:butt;stroke-linejoin:miter;stroke-miterlimit:4;stroke-dasharray:none;stroke-opacity:1" d="M10.25.319V4.5"/><path style="fill:#000;fill-opacity:1;fill-rule:nonzero;stroke:none;stroke-width:.5;stroke-linejoin:miter;stroke-miterlimit:4;stroke-dasharray:none;stroke-dashoffset:0;stroke-opacity:1" d="M1 11h14v5H1z"/><path style="fill:#87aade;fill-opacity:1;fill-rule:nonzero;stroke:none;stroke-width:.5;stroke-linejoin:miter;stroke-miterlimit:4;stroke-dasharray:none;stroke-dashoffset:0;stroke-opacity:1" d="M1.5 11.5h13v4h-13z"/><path style="fill:#000;fill-opacity:1;fill-rule:evenodd;stroke:none;stroke-width:.5;stroke-linecap:butt;stroke-linejoin:bevel;stroke-miterlimit:4;stroke-dasharray:none;stroke-opacity:1" d="M13.143 7.52h-3v-3h-4v3h-3l5 5 5-5z"/><path style="fill:#aade87;fill-opacity:1;fill-rule:evenodd;stroke:none;stroke-width:.5;stroke-linecap:butt;stroke-linejoin:bevel;stroke-miterlimit:4;stroke-dasharray:none;stroke-opacity:1" d="M12 8H9.61V5.045H6.676V8h-2.39l3.857 3.857L12 8z"/></svg>
